X:70
T:The Mill dams of Binnorie
H:Set in Vol. 1st. after the other tune
Z:Jack Campin - http://www.campin.me.uk
S:Blaikie MS (NLS MS.1578) p21
N:Blaikie #64
M:2/4
L:1/8
V:1 midi program 1 74
V:2 midi program 1 46 bass middle = d transpose -24
Q:1/4=72
K:G
[V:1] A|dd/e/ dA|dd/e/ dc|B>A``````GB   |AG E2|
[V:2] z|D2    d2|d2    f2|g2       g2   |e2 e2|
%
[V:1]   ED/E/ GG|ED/E/ GB|D/D/D/E/ GB/A/|G2 D|]
[V:2]   c2    B2|c2    G2|d2       dd   |G2 g|]
W:Transcription (c) Jack Campin 2009, no mirroring or republication without permission

